images_sukapura_svg/cmd/sc_switchcontroldesignmode.svg

<svg viewBox="0 0 16 16" xmlns="http://www.w3.org/2000/svg"><path d="m.5 1.5 13 12h-13zm2 5.4999997v.976392 3.5236083h4.5.5z" fill="#fc0" fill-rule="evenodd" stroke="#c89e00" stroke-linecap="round" stroke-linejoin="round"/><g fill="#eac282" transform="translate(-.495572 -5.5)"><path d="m8.0648836 13.101074-1.0693114 2.712486 2.9227772-.657095z" fill="#a2a2a7" stroke="#848489" stroke-linecap="square"/><path d="m11.861005 8.958496-3.524935 3.651053 2.158551 2.207933 3.493336-3.734963z" fill="#fc0" stroke="#c89e00"/><path d="m14.065594 7c-.142171 0-.283638.05379-.392578.1625977l-1.255371 1.2524416 2.135742 2.1372067 1.283203-1.229004c.21788-.2175952.21788-.5675602 0-.7851562l-1.376953-1.3754881c-.108941-.108798-.251871-.1625977-.394043-.1625977z" fill="#e68497" stroke="#b6496c"/><path d="m13.411678 10.101871-.552201-.5355508-3.5918326 3.4336798.7279278.5z" fill="#ffe014"/></g></svg>

<?xml version="1.0" encoding="UTF-8" standalone="no"?>
<svg
   xmlns:dc="http://purl.org/dc/elements/1.1/"
   xmlns:cc="http://creativecommons.org/ns#"
   xmlns:rdf="http://www.w3.org/1999/02/22-rdf-syntax-ns#"
   xmlns:svg="http://www.w3.org/2000/svg"
   xmlns="http://www.w3.org/2000/svg"
   xmlns:sodipodi="http://sodipodi.sourceforge.net/DTD/sodipodi-0.dtd"
   xmlns:inkscape="http://www.inkscape.org/namespaces/inkscape"
   viewBox="0 0 16 16"
   version="1.1"
   id="svg22"
   sodipodi:docname="sc_switchcontroldesignmode.svg"
   inkscape:version="0.92.3 (unknown)"
   inkscape:export-filename="/home/rizmut/Dokumen/Rizmut/Github/libreoffice-style-sukapura/images_sukapura/cmd/sc_switchcontroldesignmode.png"
   inkscape:export-xdpi="96"
   inkscape:export-ydpi="96">
  <metadata
     id="metadata28">
    <rdf:RDF>
      <cc:Work
         rdf:about="">
        <dc:format>image/svg+xml</dc:format>
        <dc:type
           rdf:resource="http://purl.org/dc/dcmitype/StillImage" />
        <dc:title></dc:title>
      </cc:Work>
    </rdf:RDF>
  </metadata>
  <defs
     id="defs26" />
  <sodipodi:namedview
     pagecolor="#ffffff"
     bordercolor="#666666"
     borderopacity="1"
     objecttolerance="10"
     gridtolerance="10"
     guidetolerance="10"
     inkscape:pageopacity="0"
     inkscape:pageshadow="2"
     inkscape:window-width="1366"
     inkscape:window-height="706"
     id="namedview24"
     showgrid="true"
     inkscape:zoom="10.429825"
     inkscape:cx="20.492607"
     inkscape:cy="-0.25338082"
     inkscape:window-x="0"
     inkscape:window-y="0"
     inkscape:window-maximized="1"
     inkscape:current-layer="svg22">
    <inkscape:grid
       type="xygrid"
       id="grid824"
       spacingx="0.5"
       spacingy="0.5"
       empspacing="2" />
  </sodipodi:namedview>
  <linearGradient
     id="a"
     gradientUnits="userSpaceOnUse"
     x1="10"
     x2="11.5000006"
     y1="4"
     y2="2.4999994">
    <stop
       offset="0"
       stop-color="#fff"
       id="stop2" />
    <stop
       offset=".77967989"
       stop-color="#f1f1f1"
       id="stop4" />
    <stop
       offset="1"
       stop-color="#d5d5d5"
       id="stop6" />
  </linearGradient>
  <radialGradient
     id="b"
     cx="10.994179"
     cy="4.42844"
     gradientTransform="matrix(1.4 .00000004 -.00000001 1.2 -4.39185 -2.314129)"
     gradientUnits="userSpaceOnUse"
     r="5">
    <stop
       offset="0"
       stop-color="#d7d7d7"
       id="stop9" />
    <stop
       offset=".49894297"
       stop-color="#f7f7f7"
       id="stop11" />
    <stop
       offset="1"
       stop-color="#fff"
       id="stop13" />
  </radialGradient>
  <path
     inkscape:connector-curvature="0"
     style="fill:#ffcc00;fill-opacity:1;fill-rule:evenodd;stroke:#c89e00;stroke-linecap:round;stroke-linejoin:round;stroke-opacity:1"
     d="m 0.5,1.5 13,12 h -13 z m 2,5.4999997 V 7.9763917 11.5 H 7 7.5 Z"
     id="path8"
     sodipodi:nodetypes="cccccccccc" />
  <g
     id="g12"
     transform="translate(-0.49557219,-5.5)"
     style="fill:#eac282">
    <path
       style="fill:#a2a2a7;fill-opacity:1;stroke:#848489;stroke-linecap:square;stroke-linejoin:miter;stroke-opacity:1"
       id="path827"
       d="M 8.0648836,13.101074 6.9955722,15.81356 9.9183494,15.156465 Z"
       inkscape:connector-curvature="0"
       sodipodi:nodetypes="cccc" />
    <path
       d="m 11.861005,8.958496 -3.524935,3.651053 2.158551,2.207933 3.493336,-3.734963 z"
       id="path8-3"
       style="fill:#ffcc00;fill-opacity:1;stroke:#c89e00;stroke-opacity:1"
       inkscape:connector-curvature="0"
       sodipodi:nodetypes="ccccc" />
    <path
       d="m 14.065594,7 c -0.142171,0 -0.283638,0.05379 -0.392578,0.1625977 l -1.255371,1.2524416 2.135742,2.1372067 1.283203,-1.229004 c 0.21788,-0.2175952 0.21788,-0.5675602 0,-0.7851562 L 14.459637,7.1625977 C 14.350696,7.0537997 14.207766,7 14.065594,7 Z"
       id="path10"
       style="fill:#e68497;fill-opacity:1;stroke:#b6496c;stroke-opacity:1"
       inkscape:connector-curvature="0" />
    <path
       inkscape:connector-curvature="0"
       style="fill:#ffe014"
       d="M 13.411678,10.101871 12.859477,9.5663202 9.2676444,13 9.9955722,13.5 Z"
       id="path14"
       sodipodi:nodetypes="ccccc" />
  </g>
</svg>
